packages/foundations/assets/icons/functional/images/business & payment/ticket_16.svg

<svg width="16" height="16" viewBox="0 0 16 16" fill="none" xmlns="http://www.w3.org/2000/svg">
<g clip-path="url(#clip0_184_156)">
<path fill-rule="evenodd" clip-rule="evenodd" d="M4.80001 14.4H11.2C12.075 14.4 12.8 13.675 12.8 12.8V3.19998C12.8 2.29998 12.075 1.59998 11.2 1.59998H4.80001C3.92501 1.59998 3.20001 2.29998 3.20001 3.19998V12.8C3.20001 13.675 3.92501 14.4 4.80001 14.4ZM4.80001 12.8V3.19998H11.2V12.8H4.80001ZM5.60001 10.387C5.60001 9.98098 5.94101 9.59998 6.38701 9.59998C6.85901 9.59998 7.20001 9.97998 7.20001 10.387C7.20054 10.4939 7.17988 10.5998 7.13921 10.6987C7.09854 10.7976 7.03867 10.8874 6.96307 10.963C6.88747 11.0386 6.79764 11.0985 6.69876 11.1392C6.59988 11.1798 6.49393 11.2005 6.38701 11.2C5.94101 11.2 5.60001 10.82 5.60001 10.387ZM8.79701 10.387C8.79701 9.98098 9.15901 9.59998 9.59701 9.59998C10.037 9.59998 10.397 9.97998 10.397 10.387C10.397 10.819 10.037 11.2 9.59701 11.2C9.38423 11.1948 9.18179 11.1071 9.0325 10.9554C8.88321 10.8036 8.79877 10.5998 8.79701 10.387Z" fill="#1A1C1F"/>
</g>
<defs>
<clipPath id="clip0_184_156">
<rect width="16" height="16" fill="white"/>
</clipPath>
</defs>
</svg>

<svg xmlns="http://www.w3.org/2000/svg" width="16" height="16" fill="none"><g clip-path="url(#a)"><path fill="#1A1C1F" fill-rule="evenodd" d="M4.8 14.4h6.4c.875 0 1.6-.725 1.6-1.6V3.2c0-.9-.725-1.6-1.6-1.6H4.8c-.875 0-1.6.7-1.6 1.6v9.6c0 .875.725 1.6 1.6 1.6m0-1.6V3.2h6.4v9.6zm.8-2.413c0-.406.341-.787.787-.787.472 0 .813.38.813.787a.81.81 0 0 1-.813.813c-.446 0-.787-.38-.787-.813m3.197 0c0-.406.362-.787.8-.787.44 0 .8.38.8.787 0 .432-.36.813-.8.813a.82.82 0 0 1-.8-.813" clip-rule="evenodd"/></g><defs><clipPath id="a"><path fill="#fff" d="M0 0h16v16H0z"/></clipPath></defs></svg>
